assets/icons/default.svg

<?xml version="1.0" encoding="utf-8"?><!-- Uploaded to: SVG Repo, www.svgrepo.com, Generator: SVG Repo Mixer Tools -->
<svg width="24" height="24" viewBox="0 0 24 24" fill="none" xmlns="http://www.w3.org/2000/svg">
<path opacity="0.15" d="M4 5C4 4.44772 4.44772 4 5 4H19C19.5523 4 20 4.44772 20 5V19C20 19.5523 19.5523 20 19 20H5C4.44772 20 4 19.5523 4 19V5Z" fill="currentColor"/>
<path d="M4.02693 18.329C4.18385 19.277 5.0075 20 6 20H18C19.1046 20 20 19.1046 20 18V14.1901M4.02693 18.329C4.00922 18.222 4 18.1121 4 18V6C4 4.89543 4.89543 4 6 4H18C19.1046 4 20 4.89543 20 6V14.1901M4.02693 18.329L7.84762 14.5083C8.52765 13.9133 9.52219 13.8481 10.274 14.3494L10.7832 14.6888C11.5078 15.1719 12.4619 15.1305 13.142 14.5864L15.7901 12.4679C16.4651 11.9279 17.4053 11.8855 18.1228 12.3484C18.2023 12.3997 18.2731 12.4632 18.34 12.5301L20 14.1901M11 9C11 10.1046 10.1046 11 9 11C7.89543 11 7 10.1046 7 9C7 7.89543 7.89543 7 9 7C10.1046 7 11 7.89543 11 9Z" stroke="currentColor" stroke-width="1.5" stroke-linecap="round" stroke-linejoin="round"/>
</svg>

<svg width="24" height="24" fill="none" xmlns="http://www.w3.org/2000/svg"><path opacity=".15" d="M4 5a1 1 0 011-1h14a1 1 0 011 1v14a1 1 0 01-1 1H5a1 1 0 01-1-1V5z" fill="currentColor"/><path d="M4.027 18.329A2 2 0 006 20h12a2 2 0 002-2v-3.81M4.027 18.33A2.014 2.014 0 014 18V6a2 2 0 012-2h12a2 2 0 012 2v8.19M4.027 18.33l3.82-3.82a2 2 0 012.427-.16l.51.34a2 2 0 002.358-.103l2.648-2.118a2 2 0 012.333-.12c.08.052.15.115.217.182L20 14.19M11 9a2 2 0 11-4 0 2 2 0 014 0z" stroke="currentColor" stroke-width="1.5" stroke-linecap="round" stroke-linejoin="round"/></svg>
